images_elementary_svg/cmd/lc_freezepanes.svg

<svg height="24" width="24" xmlns="http://www.w3.org/2000/svg" xmlns:xlink="http://www.w3.org/1999/xlink"><linearGradient id="a" gradientTransform="matrix(.4922 0 0 .4584 4.51 -4.794)" gradientUnits="userSpaceOnUse" x1="1.415" x2="20.483" y1="12.017" y2="17.102"><stop offset="0" stop-color="#90dbec"/><stop offset=".262" stop-color="#55c1ec"/><stop offset=".705" stop-color="#3689e6"/><stop offset="1" stop-color="#2b63a0"/></linearGradient><linearGradient id="b" gradientUnits="userSpaceOnUse" x1="11.001" x2="11.001" xlink:href="#c" y1="2.269" y2="19.728"/><linearGradient id="c"><stop offset="0" stop-color="#fff"/><stop offset=".063" stop-color="#fff" stop-opacity=".235"/><stop offset=".951" stop-color="#fff" stop-opacity=".157"/><stop offset="1" stop-color="#fff" stop-opacity=".392"/></linearGradient><linearGradient id="d" gradientTransform="matrix(.4762 0 0 .25 .095 3)" gradientUnits="userSpaceOnUse" x1="23.954" x2="23.954" y1="15.999" y2="19.963"><stop offset="0"/><stop offset="1" stop-opacity="0"/></linearGradient><linearGradient id="e" gradientTransform="matrix(.48484 0 0 .52706 -.165 -.4)" gradientUnits="userSpaceOnUse" x1="24" x2="24" xlink:href="#c" y1="5" y2="43"/><linearGradient id="f" gradientTransform="matrix(.44577 0 0 .44994 .802 -.025)" gradientUnits="userSpaceOnUse" x1="25.132" x2="25.132" y1="15.5" y2="48.396"><stop offset="0" stop-color="#fafafa"/><stop offset="1" stop-color="#e2e1de"/></linearGradient><linearGradient id="g" gradientTransform="matrix(0 -1 1 0 0 24)" gradientUnits="userSpaceOnUse" x1="11.001" x2="11.001" xlink:href="#c" y1="2.269" y2="19.728"/><rect fill="url(#f)" height="20" rx=".528" ry=".556" width="19" x="2" y="2"/><path d="m7 2.5h13.44v19.5h-13.44z" fill="none" stroke="url(#e)" stroke-linecap="round" stroke-linejoin="round" stroke-width="1.1"/><path d="m2 7h20v1h-20z" fill="url(#d)" opacity=".15"/><path d="m21 6.164v15.3c0 .305-.23.536-.537.536h-13.463v1h13.463c.842 0 1.537-.695 1.537-1.537v-15.3z" opacity=".3"/><path d="m2.537 1.5c-.574 0-1.037.463-1.037 1.037v3.963s-.085 10.67-.085 14.997c0 .574.387 1.04.96 1.037l4.625-.05v-15.484h14.5v-4.463c0-.574-.463-1.037-1.037-1.037z" fill="url(#a)"/><path d="m2.537 1c-.842 0-1.537.695-1.537 1.537v18.926c0 .843.694 1.537 1.537 1.537h4.463v-1h-4.463c-.305 0-.537-.232-.537-.537v-14.463h20v-4.463c0-.842-.695-1.537-1.537-1.537zm0 1h17.926c.306 0 .537.23.537.537v3.463h-19v-3.463c0-.307.23-.537.537-.537z" fill="#004372" fill-opacity=".49"/><path d="m2.5 2.5v3h18v-3z" fill="none" opacity=".5" stroke="url(#b)" stroke-linecap="round" stroke-linejoin="round"/><path d="m11 7h1v15h-1zm5 0h1v15h-1z" opacity=".321"/><path d="m1.517 10h4.483v1h-4.483z" fill="#004372" fill-opacity=".49"/><path d="m7 10h4v1h-4zm5 0h4v1h-4zm5 0h4v1h-4z" opacity=".321"/><path d="m1.517 14h4.483v1h-4.483zm4.483-7h1v15h-1z" fill="#004372" fill-opacity=".49"/><path d="m7 14h4v1h-4zm5 0h4v1h-4zm5 0h4v1h-4z" opacity=".321"/><path d="m1.517 18h4.483v1h-4.483z" fill="#004372" fill-opacity=".49"/><path d="m7 18h4v1h-4zm5 0h4v1h-4zm5 0h4v1h-4z" opacity=".321"/><path d="m6 2h1v4h-1zm5 0h1v4h-1zm5 0h1v4h-1z" fill="#004372" fill-opacity=".49"/><path d="m2.5 21.5h3v-18.94h-3z" fill="none" opacity=".5" stroke="url(#g)" stroke-linecap="round" stroke-linejoin="round"/></svg>

<svg xmlns="http://www.w3.org/2000/svg" xmlns:xlink="http://www.w3.org/1999/xlink" height="24" width="24"><defs><linearGradient id="a" gradientTransform="matrix(.4922 0 0 .4584 4.51 -4.794)" gradientUnits="userSpaceOnUse" x1="23.732" x2="23.732" y1="5.394" y2="39.735"><stop offset="0" stop-color="#90dbec"/><stop offset=".262" stop-color="#55c1ec"/><stop offset=".705" stop-color="#3689e6"/><stop offset="1" stop-color="#2b63a0"/></linearGradient><linearGradient xlink:href="#a" id="f" x1="1.415" y1="12.017" x2="20.483" y2="17.102" gradientUnits="userSpaceOnUse"/></defs><linearGradient id="g" gradientUnits="userSpaceOnUse" x1="11.001" x2="11.001" xlink:href="#b" y1="2.269" y2="19.728"/><linearGradient id="b"><stop offset="0" stop-color="#fff"/><stop offset=".063" stop-color="#fff" stop-opacity=".235"/><stop offset=".951" stop-color="#fff" stop-opacity=".157"/><stop offset="1" stop-color="#fff" stop-opacity=".392"/></linearGradient><linearGradient id="e" gradientTransform="matrix(.4762 0 0 .25 .095 3)" gradientUnits="userSpaceOnUse" x1="23.954" x2="23.954" y1="15.999" y2="19.963"><stop offset="0"/><stop offset="1" stop-opacity="0"/></linearGradient><linearGradient id="d" gradientTransform="matrix(.48484 0 0 .52706 -.165 -.4)" gradientUnits="userSpaceOnUse" x1="24" x2="24" xlink:href="#b" y1="5" y2="43"/><linearGradient id="c" gradientTransform="matrix(.44577 0 0 .44994 .802 -.025)" gradientUnits="userSpaceOnUse" x1="25.132" x2="25.132" y1="15.5" y2="48.396"><stop offset="0" stop-color="#fafafa"/><stop offset="1" stop-color="#e2e1de"/></linearGradient><linearGradient id="h" gradientTransform="rotate(-90 12 12)" gradientUnits="userSpaceOnUse" x1="11.001" x2="11.001" xlink:href="#b" y1="2.269" y2="19.728"/><rect fill="url(#c)" height="20" rx=".528" ry=".556" width="19" x="2" y="2"/><path d="M7 2.5h13.44V22H7z" fill="none" stroke="url(#d)" stroke-linecap="round" stroke-linejoin="round" stroke-width="1.1"/><path d="M2 7h20v1H2z" fill="url(#e)" opacity=".15"/><path d="M21 6.164v15.3c0 .305-.23.536-.537.536H7v1h13.463c.842 0 1.537-.695 1.537-1.537v-15.3z" opacity=".3"/><path d="M2.537 1.5c-.574 0-1.037.463-1.037 1.037V6.5s-.085 10.67-.085 14.997c0 .574.387 1.04.96 1.037L7 22.484V7h14.5V2.537c0-.574-.463-1.037-1.037-1.037z" fill="url(#f)"/><path d="M2.537 1C1.695 1 1 1.695 1 2.537v18.926C1 22.306 1.694 23 2.537 23H7v-1H2.537C2.232 22 2 21.768 2 21.463V7h20V2.537C22 1.695 21.305 1 20.463 1zm0 1h17.926c.306 0 .537.23.537.537V6H2V2.537C2 2.23 2.23 2 2.537 2z" fill="#004372" fill-opacity=".49"/><path d="M2.5 2.5v3h18v-3z" fill="none" opacity=".5" stroke="url(#g)" stroke-linecap="round" stroke-linejoin="round"/><path d="M11 7h1v15h-1zM16 7h1v15h-1z" opacity=".321"/><path d="M1.517 10H6v1H1.517z" fill="#004372" fill-opacity=".49"/><path d="M7 10h4v1H7zM12 10h4v1h-4zM17 10h4v1h-4z" opacity=".321"/><path d="M1.517 14H6v1H1.517zM6 7h1v15H6z" fill="#004372" fill-opacity=".49"/><path d="M7 14h4v1H7zM12 14h4v1h-4zM17 14h4v1h-4z" opacity=".321"/><path d="M1.517 18H6v1H1.517z" fill="#004372" fill-opacity=".49"/><path d="M7 18h4v1H7zM12 18h4v1h-4zM17 18h4v1h-4z" opacity=".321"/><g fill="#004372" fill-opacity=".49"><path d="M6 2h1v4H6zM11 2h1v4h-1zM16 2h1v4h-1z"/></g><path d="M2.5 21.5h3V2.56h-3z" fill="none" opacity=".5" stroke="url(#h)" stroke-linecap="round" stroke-linejoin="round"/></svg>
